X:1
T:QA 8
L:1/8
M:4/4
V:1
V:2 clef=bass
K:C
[V:1] AecA GF z D | EFGd dc B2 | cGED CEGB | ^c B/2 G/2 E/2 A/2 A/2 F ^C2 :|
[V:2] [D,F,C]8 | [G,,F,B,]8 | [C,E,B,]8 | [A,,G,^C]8 :|